X: 66
T: Black Mary's Hornpipee
M:3/2
L:1/8
S: 8: MCJLSH3 http://www.cpartington.plus.com/links/Walsh.abc
Z: Pete Stewart 2004
B: Walsh "Third Book of the most Celebrated jiggs, Lancashire hornpipes, ..."
K:D
AFDF AFDF G2E2 | AFDF ABcde2E2 | AFDF AFDFG2E2 | afdf ecAc d2D2 ||
ecAc ecAc d2B2 | ecAc efgea2E2 | AFDF AFDF g2e2 | afdf gecA d2D2 ||

%%sep 1 1 500
%%sep 1 1 500
